svg/color/dmch.svg

<?xml version="1.0" encoding="UTF-8" ?>
<!DOCTYPE svg PUBLIC "-//W3C//DTD SVG 1.1//EN" "http://www.w3.org/Graphics/SVG/1.1/DTD/svg11.dtd">
<svg width="250pt" height="250pt" viewBox="0 0 250 250" version="1.1" xmlns="http://www.w3.org/2000/svg">
<g id="#fcfefeff">
<path fill="#fcfefe" opacity="1.00" d=" M 0.00 0.00 L 250.00 0.00 L 250.00 250.00 L 0.00 250.00 L 0.00 0.00 M 112.40 12.55 C 64.93 17.07 23.16 55.32 14.27 102.11 C 4.00 147.77 26.10 198.00 66.20 221.82 C 105.65 246.69 160.40 243.01 196.28 213.28 C 236.14 182.22 250.15 123.40 228.18 77.85 C 209.05 34.22 159.75 6.14 112.40 12.55 Z" />
<path fill="#fcfefe" opacity="1.00" d=" M 61.39 85.48 C 74.86 81.92 87.87 95.72 86.06 108.98 C 84.58 127.00 86.45 145.66 83.29 163.29 C 73.33 169.62 58.33 162.47 56.39 150.64 C 55.49 130.11 56.23 109.53 55.99 88.99 C 55.42 85.82 59.28 85.89 61.39 85.48 Z" />
<path fill="#fcfefe" opacity="1.00" d=" M 103.38 85.40 C 115.00 82.32 124.69 90.95 129.25 100.76 C 134.26 110.00 139.80 118.97 144.99 128.08 C 140.09 141.21 119.04 142.41 112.58 129.39 C 105.04 118.47 98.35 106.96 91.04 95.90 C 91.09 90.01 98.33 86.87 103.38 85.40 Z" />
<path fill="#fcfefe" opacity="1.00" d=" M 151.37 85.37 C 160.68 83.10 172.00 86.69 175.89 96.09 C 185.28 111.73 194.90 127.26 203.95 143.10 C 199.12 154.95 179.66 157.21 172.30 145.74 C 161.94 128.56 150.36 112.07 140.01 94.92 C 141.24 90.28 146.75 86.83 151.37 85.37 Z" />
<path fill="#fcfefe" opacity="1.00" d=" M 102.31 139.30 C 111.14 138.92 118.28 145.22 124.99 150.23 C 118.30 157.73 109.39 169.20 97.96 164.06 C 86.98 158.12 90.96 141.65 102.31 139.30 Z" />
</g>
<g id="#26accaff">
<path fill="#26acca" opacity="1.00" d=" M 112.40 12.55 C 159.75 6.14 209.05 34.22 228.18 77.85 C 250.15 123.40 236.14 182.22 196.28 213.28 C 160.40 243.01 105.65 246.69 66.20 221.82 C 26.10 198.00 4.00 147.77 14.27 102.11 C 23.16 55.32 64.93 17.07 112.40 12.55 M 61.39 85.48 C 59.28 85.89 55.42 85.82 55.99 88.99 C 56.23 109.53 55.49 130.11 56.39 150.64 C 58.33 162.47 73.33 169.62 83.29 163.29 C 86.45 145.66 84.58 127.00 86.06 108.98 C 87.87 95.72 74.86 81.92 61.39 85.48 M 103.38 85.40 C 98.33 86.87 91.09 90.01 91.04 95.90 C 98.35 106.96 105.04 118.47 112.58 129.39 C 119.04 142.41 140.09 141.21 144.99 128.08 C 139.80 118.97 134.26 110.00 129.25 100.76 C 124.69 90.95 115.00 82.32 103.38 85.40 M 151.37 85.37 C 146.75 86.83 141.24 90.28 140.01 94.92 C 150.36 112.07 161.94 128.56 172.30 145.74 C 179.66 157.21 199.12 154.95 203.95 143.10 C 194.90 127.26 185.28 111.73 175.89 96.09 C 172.00 86.69 160.68 83.10 151.37 85.37 M 102.31 139.30 C 90.96 141.65 86.98 158.12 97.96 164.06 C 109.39 169.20 118.30 157.73 124.99 150.23 C 118.28 145.22 111.14 138.92 102.31 139.30 Z" />
</g>
</svg>

<?xml version="1.0" encoding="utf-8"?>
<!-- Generator: Adobe Illustrator 26.0.3, SVG Export Plug-In . SVG Version: 6.00 Build 0)  -->
<svg version="1.1" id="Layer_1" xmlns="http://www.w3.org/2000/svg" xmlns:xlink="http://www.w3.org/1999/xlink" x="0px" y="0px"
	 viewBox="0 0 250 250" style="enable-background:new 0 0 250 250;" xml:space="preserve">
<style type="text/css">
	.st0{fill:#FCFEFE;}
	.st1{fill:#26ACCA;}
</style>
<g id="_x23_fcfefeff">
	<path class="st0" d="M61.4,85.5c13.5-3.6,26.5,10.2,24.7,23.5c-1.5,18,0.4,36.7-2.8,54.3c-10,6.3-25-0.8-26.9-12.6
		c-0.9-20.5-0.2-41.1-0.4-61.7C55.4,85.8,59.3,85.9,61.4,85.5z"/>
	<path class="st0" d="M103.4,85.4c11.6-3.1,21.3,5.5,25.9,15.4c5,9.2,10.6,18.2,15.7,27.3c-4.9,13.1-26,14.3-32.4,1.3
		C105,118.5,98.3,107,91,95.9C91.1,90,98.3,86.9,103.4,85.4z"/>
	<path class="st0" d="M151.4,85.4c9.3-2.3,20.6,1.3,24.5,10.7c9.4,15.6,19,31.2,28.1,47c-4.8,11.8-24.3,14.1-31.6,2.6
		c-10.4-17.2-21.9-33.7-32.3-50.8C141.2,90.3,146.8,86.8,151.4,85.4z"/>
	<path class="st0" d="M102.3,139.3c8.8-0.4,16,5.9,22.7,10.9c-6.7,7.5-15.6,19-27,13.8C87,158.1,91,141.6,102.3,139.3z"/>
</g>
<g id="_x23_26accaff">
	<path class="st1" d="M112.4,12.6c47.3-6.4,96.7,21.7,115.8,65.3c22,45.6,8,104.4-31.9,135.4c-35.9,29.7-90.6,33.4-130.1,8.5
		C26.1,198,4,147.8,14.3,102.1C23.2,55.3,64.9,17.1,112.4,12.6 M61.4,85.5c-2.1,0.4-6,0.3-5.4,3.5c0.2,20.5-0.5,41.1,0.4,61.7
		c1.9,11.8,16.9,19,26.9,12.6c3.2-17.6,1.3-36.3,2.8-54.3C87.9,95.7,74.9,81.9,61.4,85.5 M103.4,85.4c-5,1.5-12.3,4.6-12.3,10.5
		c7.3,11.1,14,22.6,21.5,33.5c6.5,13,27.5,11.8,32.4-1.3c-5.2-9.1-10.7-18.1-15.7-27.3C124.7,90.9,115,82.3,103.4,85.4 M151.4,85.4
		c-4.6,1.5-10.1,4.9-11.4,9.5c10.4,17.2,21.9,33.6,32.3,50.8c7.4,11.5,26.8,9.2,31.6-2.6c-9.1-15.8-18.7-31.4-28.1-47
		C172,86.7,160.7,83.1,151.4,85.4 M102.3,139.3C91,141.6,87,158.1,98,164.1c11.4,5.1,20.3-6.3,27-13.8
		C118.3,145.2,111.1,138.9,102.3,139.3z"/>
</g>
</svg>
